svg/twitter_retweet.svg

<svg xmlns="http://www.w3.org/2000/svg" viewBox="0 0 24 24"><path d="M6 5.75 10.25 10H7v6h6.5l2 2H7a2 2 0 0 1-2-2v-6H1.75zm12 12.5L13.75 14H17V8h-6.5l-2-2H17a2 2 0 0 1 2 2v6h3.25z"/></svg>

<?xml version="1.0" encoding="UTF-8"?><!DOCTYPE svg PUBLIC "-//W3C//DTD SVG 1.1//EN" "http://www.w3.org/Graphics/SVG/1.1/DTD/svg11.dtd"><svg xmlns="http://www.w3.org/2000/svg" xmlns:xlink="http://www.w3.org/1999/xlink" version="1.1" id="mdi-twitter-retweet" width="24" height="24" viewBox="0 0 24 24"><path d="M6,5.75L10.25,10H7V16H13.5L15.5,18H7A2,2 0 0,1 5,16V10H1.75L6,5.75M18,18.25L13.75,14H17V8H10.5L8.5,6H17A2,2 0 0,1 19,8V14H22.25L18,18.25Z" /></svg>
